actions/48/system-lock-screen.svg

<?xml version="1.0" encoding="UTF-8" standalone="no"?>
<!-- Created with Inkscape (http://www.inkscape.org/) -->

<svg
   xmlns:dc="http://purl.org/dc/elements/1.1/"
   xmlns:cc="http://creativecommons.org/ns#"
   xmlns:rdf="http://www.w3.org/1999/02/22-rdf-syntax-ns#"
   xmlns:svg="http://www.w3.org/2000/svg"
   xmlns="http://www.w3.org/2000/svg"
   xmlns:xlink="http://www.w3.org/1999/xlink"
   xmlns:inkscape="http://www.inkscape.org/namespaces/inkscape"
   version="1.0"
   width="48"
   height="48"
   id="svg3491">
  <metadata
     id="metadata39">
    <rdf:RDF>
      <cc:Work
         rdf:about="">
        <dc:format>image/svg+xml</dc:format>
        <dc:type
           rdf:resource="http://purl.org/dc/dcmitype/StillImage" />
      </cc:Work>
    </rdf:RDF>
  </metadata>
  <defs
     id="defs3493">
    <linearGradient
       id="linearGradient10691-1">
      <stop
         id="stop10693-3"
         style="stop-color:#000000;stop-opacity:1"
         offset="0" />
      <stop
         id="stop10695-1"
         style="stop-color:#000000;stop-opacity:0"
         offset="1" />
    </linearGradient>
    <radialGradient
       cx="6.702713"
       cy="73.615715"
       r="7.228416"
       fx="6.702713"
       fy="73.615715"
       id="radialGradient2454"
       xlink:href="#linearGradient10691-1"
       gradientUnits="userSpaceOnUse"
       gradientTransform="matrix(1.9368007,0,0,0.4150287,11.018182,13.447365)" />
    <linearGradient
       id="linearGradient4518">
      <stop
         id="stop4520"
         style="stop-color:#7e7e7e;stop-opacity:0.94901961"
         offset="0" />
      <stop
         id="stop4522"
         style="stop-color:#969696;stop-opacity:1"
         offset="1" />
    </linearGradient>
    <linearGradient
       x1="24.687456"
       y1="40.812702"
       x2="24.739107"
       y2="33.999802"
       id="linearGradient2451"
       xlink:href="#linearGradient4518"
       gradientUnits="userSpaceOnUse"
       gradientTransform="matrix(1.116455,0,0,1,-2.7949567,2.000003)" />
    <linearGradient
       id="linearGradient4510">
      <stop
         id="stop4512"
         style="stop-color:#a5a6aa;stop-opacity:1"
         offset="0" />
      <stop
         id="stop4514"
         style="stop-color:#e2e2e4;stop-opacity:1"
         offset="0.22134377" />
      <stop
         id="stop4516"
         style="stop-color:#595959;stop-opacity:1"
         offset="1" />
    </linearGradient>
    <linearGradient
       x1="318.42093"
       y1="93.29171"
       x2="318.42093"
       y2="78.342476"
       id="linearGradient2449"
       xlink:href="#linearGradient4510"
       gradientUnits="userSpaceOnUse"
       gradientTransform="matrix(1.4628351,0,0,0.7083672,-444.01094,-22.190508)" />
    <linearGradient
       id="linearGradient3342">
      <stop
         id="stop3344"
         style="stop-color:#ffffff;stop-opacity:0"
         offset="0" />
      <stop
         id="stop3346"
         style="stop-color:#ffffff;stop-opacity:1"
         offset="1" />
    </linearGradient>
    <linearGradient
       x1="15.573899"
       y1="46.971004"
       x2="23.593679"
       y2="46.971004"
       id="linearGradient2446"
       xlink:href="#linearGradient3342"
       gradientUnits="userSpaceOnUse"
       gradientTransform="matrix(1.1176471,0,0,1,-2.3519696,-3.4710029)"
       spreadMethod="reflect" />
    <linearGradient
       id="linearGradient9936">
      <stop
         id="stop9938"
         style="stop-color:#575757;stop-opacity:1"
         offset="0" />
      <stop
         id="stop9940"
         style="stop-color:#333333;stop-opacity:1"
         offset="1" />
    </linearGradient>
    <radialGradient
       cx="12.244348"
       cy="4.8630676"
       r="20.999998"
       fx="12.244348"
       fy="4.8630676"
       id="radialGradient2442"
       xlink:href="#linearGradient9936"
       gradientUnits="userSpaceOnUse"
       gradientTransform="matrix(1.4167634,0.01999111,-0.01319114,1.1175011,-5.3255699,6.599117)" />
    <linearGradient
       id="linearGradient6592-2-7">
      <stop
         id="stop6594-0-2"
         style="stop-color:#ffffff;stop-opacity:0.27450982"
         offset="0" />
      <stop
         id="stop6596-2-5"
         style="stop-color:#ffffff;stop-opacity:0"
         offset="1" />
    </linearGradient>
    <linearGradient
       x1="12.9375"
       y1="8.4375"
       x2="15.25"
       y2="19.8125"
       id="linearGradient2439"
       xlink:href="#linearGradient6592-2-7"
       gradientUnits="userSpaceOnUse"
       gradientTransform="matrix(1.0952382,0,0,1.3333324,-2.2857144,2.4e-6)" />
  </defs>
  <g
     id="layer1">
    <path
       d="m 38,44 c 0,1.656855 -6.268014,3 -14.000001,3 C 16.268013,47 10,45.656855 10,44 10,42.343146 16.268013,41 23.999999,41 31.731986,41 38,42.343146 38,44 l 0,0 z"
       inkscape:connector-curvature="0"
       id="path2589"
       style="opacity:0.4;fill:url(#radialGradient2454);fill-opacity:1;fill-rule:nonzero;stroke:none;stroke-width:0.80000001;marker:none;visibility:visible;display:inline;overflow:visible" />
    <path
       d="m 17.859462,36.249806 c 0,0 0.141772,4.25777 -0.565344,5.250194 -0.707116,0.992424 -2.114148,1.004 -2.114148,1.004 -0.902888,0.104262 -0.910357,1.996 0,1.996 l 17.63999,0 c 0.910357,0 0.903077,-1.893068 0,-1.996 0,0 -1.406971,-0.01158 -2.114077,-1.004 -0.707106,-0.992422 -0.565415,-5.250194 -0.565415,-5.250194 l -12.281006,0 0,0 z"
       inkscape:connector-curvature="0"
       id="rect1789"
       style="fill:url(#linearGradient2449);fill-opacity:1;stroke:url(#linearGradient2451);stroke-width:1;stroke-linecap:round;stroke-linejoin:round;stroke-miterlimit:4;stroke-opacity:1;stroke-dasharray:none;stroke-dashoffset:0.50000001;display:inline;enable-background:new" />
    <path
       d="m 15.612977,43.5 16.774046,0"
       inkscape:connector-curvature="0"
       id="path3340"
       style="fill:none;stroke:url(#linearGradient2446);stroke-width:1px;stroke-linecap:square;stroke-linejoin:miter;stroke-opacity:1" />
    <rect
       width="46.999763"
       height="32.99976"
       rx="1.0444448"
       ry="1"
       x="0.5001179"
       y="3.5001206"
       id="rect2722"
       style="fill:#1a1a1a;fill-opacity:1;stroke:#000000;stroke-width:1.00023937;stroke-linecap:round;stroke-linejoin:round;stroke-miterlimit:4;stroke-opacity:1;stroke-dasharray:none;stroke-dashoffset:0.50000001" />
    <rect
       width="42"
       height="28"
       x="3.0000002"
       y="6"
       id="rect2716"
       style="fill:url(#radialGradient2442);fill-opacity:1;fill-rule:evenodd;stroke:none;display:inline;enable-background:new" />
    <path
       d="M 19,15.024578 19,19 17.964285,19 C 17.433642,19 17,19.524409 17,20 l 0,8.144646 C 17,28.620233 17.433642,29 17.964285,29 L 31.0491,29 C 31.579753,29 32,28.620233 32,28.144646 L 32,20 c 0,-0.475591 -0.420247,-1 -0.9509,-1 L 30,19 30,15.079764 C 30,11.564429 27.094971,10.0258 24.513397,10.00281 21.963071,9.9800985 19,11.712981 19,15.024578 z m 5.540178,-2.800603 c 3.143546,0 3.40248,2.119796 3.459822,3.72494 L 28,19 l -7,0 0,-3.037289 c 0,-1.685045 0.427882,-3.738736 3.540178,-3.738736 z"
       inkscape:connector-curvature="0"
       id="path2086"
       style="opacity:0.8;fill:#ffffff;fill-opacity:1;fill-rule:nonzero;stroke:none;stroke-width:1;marker:none;visibility:visible;display:block;overflow:visible" />
    <path
       d="M 1,4 47,4 47,14.666672 1,24 1,4 z"
       inkscape:connector-curvature="0"
       id="rect6588"
       style="fill:url(#linearGradient2439);fill-opacity:1;stroke:none" />
  </g>
</svg>

<?xml version="1.0" encoding="UTF-8" standalone="no"?>
<!-- Created with Inkscape (http://www.inkscape.org/) -->
<svg
   xmlns:svg="http://www.w3.org/2000/svg"
   xmlns="http://www.w3.org/2000/svg"
   xmlns:xlink="http://www.w3.org/1999/xlink"
   version="1.0"
   width="48"
   height="48"
   id="svg3491">
  <defs
     id="defs3493">
    <linearGradient
       id="linearGradient10691-1">
      <stop
         id="stop10693-3"
         style="stop-color:#000000;stop-opacity:1"
         offset="0" />
      <stop
         id="stop10695-1"
         style="stop-color:#000000;stop-opacity:0"
         offset="1" />
    </linearGradient>
    <radialGradient
       cx="6.702713"
       cy="73.615715"
       r="7.228416"
       fx="6.702713"
       fy="73.615715"
       id="radialGradient2454"
       xlink:href="#linearGradient10691-1"
       gradientUnits="userSpaceOnUse"
       gradientTransform="matrix(1.9368007,0,0,0.4150287,11.018182,13.447365)" />
    <linearGradient
       id="linearGradient4518">
      <stop
         id="stop4520"
         style="stop-color:#7e7e7e;stop-opacity:0.94901961"
         offset="0" />
      <stop
         id="stop4522"
         style="stop-color:#969696;stop-opacity:1"
         offset="1" />
    </linearGradient>
    <linearGradient
       x1="24.687456"
       y1="40.812702"
       x2="24.739107"
       y2="33.999802"
       id="linearGradient2451"
       xlink:href="#linearGradient4518"
       gradientUnits="userSpaceOnUse"
       gradientTransform="matrix(1.116455,0,0,1,-2.7949567,2.000003)" />
    <linearGradient
       id="linearGradient4510">
      <stop
         id="stop4512"
         style="stop-color:#a5a6aa;stop-opacity:1"
         offset="0" />
      <stop
         id="stop4514"
         style="stop-color:#e2e2e4;stop-opacity:1"
         offset="0.22134377" />
      <stop
         id="stop4516"
         style="stop-color:#595959;stop-opacity:1"
         offset="1" />
    </linearGradient>
    <linearGradient
       x1="318.42093"
       y1="93.29171"
       x2="318.42093"
       y2="78.342476"
       id="linearGradient2449"
       xlink:href="#linearGradient4510"
       gradientUnits="userSpaceOnUse"
       gradientTransform="matrix(1.4628351,0,0,0.7083672,-444.01094,-22.190508)" />
    <linearGradient
       id="linearGradient3342">
      <stop
         id="stop3344"
         style="stop-color:#ffffff;stop-opacity:0"
         offset="0" />
      <stop
         id="stop3346"
         style="stop-color:#ffffff;stop-opacity:1"
         offset="1" />
    </linearGradient>
    <linearGradient
       x1="15.573899"
       y1="46.971004"
       x2="23.593679"
       y2="46.971004"
       id="linearGradient2446"
       xlink:href="#linearGradient3342"
       gradientUnits="userSpaceOnUse"
       gradientTransform="matrix(1.1176471,0,0,1,-2.3519696,-3.4710029)"
       spreadMethod="reflect" />
    <linearGradient
       id="linearGradient9936">
      <stop
         id="stop9938"
         style="stop-color:#575757;stop-opacity:1"
         offset="0" />
      <stop
         id="stop9940"
         style="stop-color:#333333;stop-opacity:1"
         offset="1" />
    </linearGradient>
    <radialGradient
       cx="12.244348"
       cy="4.8630676"
       r="20.999998"
       fx="12.244348"
       fy="4.8630676"
       id="radialGradient2442"
       xlink:href="#linearGradient9936"
       gradientUnits="userSpaceOnUse"
       gradientTransform="matrix(1.4167634,1.999111e-2,-1.319114e-2,1.1175011,-5.3255699,6.599117)" />
    <linearGradient
       id="linearGradient6592-2-7">
      <stop
         id="stop6594-0-2"
         style="stop-color:#ffffff;stop-opacity:0.27450982"
         offset="0" />
      <stop
         id="stop6596-2-5"
         style="stop-color:#ffffff;stop-opacity:0"
         offset="1" />
    </linearGradient>
    <linearGradient
       x1="12.9375"
       y1="8.4375"
       x2="15.25"
       y2="19.8125"
       id="linearGradient2439"
       xlink:href="#linearGradient6592-2-7"
       gradientUnits="userSpaceOnUse"
       gradientTransform="matrix(1.0952382,0,0,1.3333324,-2.2857144,2.4e-6)" />
  </defs>
  <g
     id="layer1">
    <path
       d="M 38,44 C 38,45.656855 31.731986,47 23.999999,47 C 16.268013,47 10,45.656855 10,44 C 10,42.343146 16.268013,41 23.999999,41 C 31.731986,41 38,42.343146 38,44 L 38,44 z"
       id="path2589"
       style="opacity:0.4;fill:url(#radialGradient2454);fill-opacity:1;fill-rule:nonzero;stroke:none;stroke-width:0.80000001;marker:none;visibility:visible;display:inline;overflow:visible" />
    <path
       d="M 17.859462,36.249806 C 17.859462,36.249806 18.001234,40.507576 17.294118,41.5 C 16.587002,42.492424 15.17997,42.504 15.17997,42.504 C 14.277082,42.608262 14.269613,44.5 15.17997,44.5 L 32.81996,44.5 C 33.730317,44.5 33.723037,42.606932 32.81996,42.504 C 32.81996,42.504 31.412989,42.49242 30.705883,41.5 C 29.998777,40.507578 30.140468,36.249806 30.140468,36.249806 L 17.859462,36.249806 L 17.859462,36.249806 z"
       id="rect1789"
       style="fill:url(#linearGradient2449);fill-opacity:1;stroke:url(#linearGradient2451);stroke-width:1;stroke-linecap:round;stroke-linejoin:round;stroke-miterlimit:4;stroke-dasharray:none;stroke-dashoffset:0.50000001;stroke-opacity:1;display:inline;enable-background:new" />
    <path
       d="M 15.612977,43.5 L 32.387023,43.5"
       id="path3340"
       style="fill:none;stroke:url(#linearGradient2446);stroke-width:1px;stroke-linecap:square;stroke-linejoin:miter;stroke-opacity:1" />
    <rect
       width="46.999763"
       height="32.99976"
       rx="1.0444448"
       ry="1"
       x="0.5001179"
       y="3.5001206"
       id="rect2722"
       style="fill:#1a1a1a;fill-opacity:1;stroke:#000000;stroke-width:1.00023937;stroke-linecap:round;stroke-linejoin:round;stroke-miterlimit:4;stroke-dasharray:none;stroke-dashoffset:0.50000001;stroke-opacity:1" />
    <rect
       width="42"
       height="28"
       x="3.0000002"
       y="6"
       id="rect2716"
       style="fill:url(#radialGradient2442);fill-opacity:1;fill-rule:evenodd;stroke:none;display:inline;enable-background:new" />
    <path
       d="M 19,15.024578 L 19,19 L 17.964285,19 C 17.433642,19 17,19.524409 17,20 L 17,28.144646 C 17,28.620233 17.433642,29 17.964285,29 L 31.0491,29 C 31.579753,29 32,28.620233 32,28.144646 L 32,20 C 32,19.524409 31.579753,19 31.0491,19 L 30,19 L 30,15.079764 C 30,11.564429 27.094971,10.0258 24.513397,10.00281 C 21.963071,9.9800985 19,11.712981 19,15.024578 z M 24.540178,12.223975 C 27.683724,12.223975 27.942658,14.343771 28,15.948915 L 28,19 L 21,19 L 21,15.962711 C 21,14.277666 21.427882,12.223975 24.540178,12.223975 z"
       id="path2086"
       style="opacity:0.8;fill:#ffffff;fill-opacity:1;fill-rule:nonzero;stroke:none;stroke-width:1;stroke-linecap:butt;stroke-linejoin:miter;marker:none;marker-start:none;marker-mid:none;marker-end:none;stroke-miterlimit:4;stroke-dasharray:none;stroke-dashoffset:0;stroke-opacity:1;visibility:visible;display:block;overflow:visible" />
    <path
       d="M 1,4 L 47,4 L 47,14.666672 L 1,24 L 1,4 z"
       id="rect6588"
       style="fill:url(#linearGradient2439);fill-opacity:1;stroke:none" />
  </g>
</svg>
